X:1
T:Only a Word
T:Only a Word
T:Charles Clinton Case
T:Charles Edward Pollock, 1885
T:Public Domain Courtesy of the Cyber Hymnal™
C:Charles Clinton Case
Z:Public Domain
Z:Courtesy of the Cyber Hymnal™
%%score ( 1 2 ) 3
L:1/8
Q:1/4=90
M:6/8
K:C
V:1 treble 
V:2 treble 
V:3 bass 
V:1
 [CE][B,D][CE] [FA]2 [EG]/[EG]/ | [EG] [DF]4 z | [B,D][CE][DF] [DF][EG][DF] | [CE]3- [CE]2 z | %4
w: 1.~On- ly a word for the|Mas- ter,|Lov- ing- ly, qui- et- ly|said; *|
w: 2.~On- ly some act of de-|vo- tion,|Will- ing- ly, joy- ful- ly|done; *|
w: 3.~On- ly an hour with the|child- ren,|Plea- sant- ly, cheer- ful- ly|giv’n; *|
w: 4.~On- ly— but Je- sus is|look- ing|Con- stant- ly, ten- der- ly|down *|
 [CE][B,D][CE] [FA]2 [EG]/[EG]/ | ([DF][FA])[EG] [DF]2 [FA]/[FA]/ | ([EG][DF])[CE] [DF]2 [B,D] | %7
w: On- ly a word, yet the|Mas- * ter heard, And some|faint- * ing hearts were|
w: Sure- ly ’twas naught, so the|proud * world thought, But yet|souls * for Christ were|
w: Yet seed was sown in that|hour * a- lone, Which would|bring * forth fruit for|
w: To earth, and sees those who|strive * to please, And their|love * He loves to|
 [CE]3- [CE]2 z ||"^Refrain" [EG]4 [FA][EG] | [DF]3- [DF]2 z | [FB]4 [FA][FG] | [Ec]3- [Ec]2 z | %12
w: fed. *|||||
w: won. *|On- ly a|word, *|on- ly a|word, *|
w: Heav’n. *|||||
w: crown. *|||||
 [Ac]4 [GB][FA] | ([EG]3- [EG]2) [EG]/[EG]/ | [DF]3 [B,D]3 | C3- C2 z |] %16
w: ||||
w: On- ly a|word, * yet the|Mas- ter|heard. *|
w: ||||
w: ||||
V:2
 x6 | x6 | x6 | x6 | x6 | x6 | x6 | x6 || x6 | x6 | x6 | x6 | x6 | x6 | x6 | C3- C2 x |] %16
V:3
 [C,C][C,C][C,C] [C,C]2 [C,G,]/[C,G,]/ | [G,,G,] [G,,G,]4 z | %2
w: ~ ~ ~ ~ ~ ~|~ ~|
 [G,,G,][G,,G,][G,,G,] [G,,G,][G,,G,][G,,G,] | [C,G,]3- [C,G,]2 z | %4
w: ~ ~ ~ ~ ~ ~|~ *|
 [C,C][C,C][C,C] [C,C]2 [C,C]/[C,C]/ | [C,C]2 [C,G,] [G,,G,]2 [G,,G,]/[G,,G,]/ | %6
w: ~ ~ ~ ~ ~ ~|~ ~ ~ ~ ~|
 [G,,G,]2 [G,,G,] [G,,G,]2 [G,,G,] | [C,G,]3- [C,G,]2 z || z6 | [G,,G,][G,,G,][G,,G,] [G,,G,]2 z | %10
w: ~ ~ ~ ~|~ *||On- ly a word,|
 z6 | [C,G,][C,G,][C,G,] [C,G,]2 z | [F,C][F,C][F,C] [F,C] z2 | %13
w: |||
 [C,C][C,C][C,C] [C,C]2 [C,G,]/[C,G,]/ | [G,,G,]3 [G,,F,]3 | [C,E,]3- [C,E,]2 z |] %16
w: |||

